src/assets/filled/CloudNotif.svg

<svg width="24" height="24" viewBox="0 0 24 24"  xmlns="http://www.w3.org/2000/svg">
<path d="M21.27 8.76001C21.27 9.78001 20.8 10.7 20.04 11.3C19.49 11.75 18.78 12.02 18.01 12.02C16.22 12.02 14.76 10.56 14.76 8.77001C14.76 7.88001 15.12 7.07001 15.72 6.48001V6.47001C16.31 5.88001 17.12 5.51001 18.01 5.51001C19.81 5.51001 21.27 6.97001 21.27 8.76001Z" />
<path d="M20.18 18.73C19.13 19.69 17.78 20.22 16.35 20.22H5.97001C3.23001 20.02 2.01001 17.91 2.01001 16.03C2.01001 14.35 2.98001 12.49 5.11001 11.97C4.18001 8.38997 5.96001 5.88997 8.04001 4.69997C10.1 3.52997 13 3.33997 15.18 4.94997C14.99 5.08997 14.82 5.23997 14.65 5.40997L14.22 5.85997V5.91997C13.6 6.72997 13.26 7.71997 13.26 8.75997C13.26 11.38 15.4 13.51 18.02 13.51C19.1 13.51 20.15 13.14 20.97 12.47C21.12 12.35 21.27 12.22 21.4 12.08C22.39 14.16 22.25 16.92 20.18 18.73Z" />
</svg>

<?xml version="1.0" encoding="UTF-8"?>
<svg width="24" height="24" viewBox="0 0 24 24" xmlns="http://www.w3.org/2000/svg">
 <path d="m21.27 8.76c0 1.02-0.47 1.94-1.23 2.54-0.55 0.45-1.26 0.72-2.03 0.72-1.79 0-3.25-1.46-3.25-3.25 0-0.89 0.36-1.7 0.96-2.29v-0.01c0.59-0.59 1.4-0.96 2.29-0.96 1.8 0 3.26 1.46 3.26 3.25z"/>
 <path d="m20.18 18.73c-1.05 0.96-2.4 1.49-3.83 1.49h-10.38c-2.74-0.2-3.96-2.31-3.96-4.19 0-1.68 0.97-3.54 3.1-4.06-0.93-3.58 0.85-6.08 2.93-7.27 2.06-1.17 4.96-1.36 7.14 0.25-0.19 0.14-0.36 0.29-0.53 0.46l-0.43 0.45v0.06c-0.62 0.81-0.96 1.8-0.96 2.84 0 2.62 2.14 4.75 4.76 4.75 1.08 0 2.13-0.37 2.95-1.04 0.15-0.12 0.3-0.25 0.43-0.39 0.99 2.08 0.85 4.84-1.22 6.65z"/>
</svg>
